assets/img/braze_icons/user-circle.svg

<svg fill="none" height="24" viewBox="0 0 24 24" width="24" xmlns="http://www.w3.org/2000/svg"><g clip-rule="evenodd" fill="#801ed7" fill-rule="evenodd"><path d="m7 9.5c0-2.76142 2.23858-5 5-5 2.7614 0 5 2.23858 5 5 0 2.7614-2.2386 5-5 5-2.76142 0-5-2.2386-5-5z"/><path d="m12 1c-6.07513 0-11 4.92487-11 11 0 6.0751 4.92487 11 11 11 6.0751 0 11-4.9249 11-11 0-6.07513-4.9249-11-11-11zm-9 11c0-4.97056 4.02944-9 9-9 4.9706 0 9 4.02944 9 9 0 2.2211-.8046 4.2543-2.1382 5.824-.9161-1.1126-2.3054-1.824-3.8618-1.824h-5.99995c-1.55637 0-2.94566.7114-3.8618 1.8241-1.33365-1.5698-2.13825-3.603-2.13825-5.8241z"/></g></svg>

<svg width="24" height="24" viewBox="0 0 24 24" fill="none" xmlns="http://www.w3.org/2000/svg">
<path fill-rule="evenodd" clip-rule="evenodd" d="M7 9.5C7 6.73858 9.23858 4.5 12 4.5C14.7614 4.5 17 6.73858 17 9.5C17 12.2614 14.7614 14.5 12 14.5C9.23858 14.5 7 12.2614 7 9.5Z" fill="#801ED7"/>
<path fill-rule="evenodd" clip-rule="evenodd" d="M12 1C5.92487 1 1 5.92487 1 12C1 18.0751 5.92487 23 12 23C18.0751 23 23 18.0751 23 12C23 5.92487 18.0751 1 12 1ZM3 12C3 7.02944 7.02944 3 12 3C16.9706 3 21 7.02944 21 12C21 14.2211 20.1954 16.2543 18.8618 17.824C17.9457 16.7114 16.5564 16 15 16H9.00005C7.44368 16 6.05439 16.7114 5.13825 17.8241C3.8046 16.2543 3 14.2211 3 12Z" fill="#801ED7"/>
</svg>
